X:95
T: Sen Gannon's
C: Colm Gannon
Z: B.Black
R: jig
M: 6/8
L: 1/8
K: D
D |F2 d AFE |FGF EDB, |A,B,A, DFA | dAF GFE |
F2 d AFE | FGF EDB, | A,B,A, DFA | BAF D2 :|
e | fdd Add | fdb afe | faf edB | ABc d2 e |
fdd Add | fdb afe | faf edB | AFE D2 :|
